X:1
T:Title
%%score { ( 1 3 ) | ( 2 4 ) }
L:1/8
M:12/8
K:Eb
V:1 treble nm="Grand Piano"
V:3 treble 
V:2 bass 
V:4 bass 
V:1
 z6 z3[Q:1/4=116] E3 | G2 G G2 [FA] [GB]2 [GB] [GB]2 [GB] | %2
[M:9/8] [GB][Ac][Ad] [Ge]2 [GB] [Ac]2 [GB] |[M:3/8] G2 E |[M:3/4] [DF]3 [DF]3 | [CE]3 [DF]3 | %6
[M:9/8] G8- G |[M:3/8] E3 |[M:6/4] G2 G G2 [FA] [GB]2 [GB] [GB]2 [GB] | %9
[M:9/8] [GB][Ac][Ad] [Ge]2 [GB] [Ac]2 [GB] |[M:3/8] G2 E |[M:3/4] [DF]3 [DF]3 | [DG]3 [DF]3 | %13
[M:9/8] [B,E]8- [B,E] |[M:3/8] [GB][Ac][Ad] |[M:6/4] [Ge]3 [Ae]3 [Ge]3 [Ge][Bd][Ac] | %16
 [GB]2 [AB] B2 B c2 B G2 E |[M:3/4] [DF]3 [DF]3 | E3 [DF]3 |[M:9/8] [EG]8- [EG] | %20
[M:3/8] [GB][Ac][Ad] |[M:6/4] [Ge]3 [Ae]3 [Ge]3 [Ge][Bd][Ac] | [GB]2 [AB] B2 B c2 B G2 E | %23
[M:3/4] [DF]3 [DF]3 | [EG]3 [E=A]3 |[M:9/8] B8- B |[M:3/8] E3 |[M:6/4] G2 GGFG B3 BcB | B6 z6 | %29
 z2 z [DF]3 z2 z [DF]3 | [EG]12 | [Ac]3- [EA-c-]2 [EA-c-] [EAc]3 e2 c | G3 D3 z6 | %33
 [EB]6 [B,E]3 [DF]3 |[M:9/8] E8- E |] %35
V:2
 z6 z3 [E,G,B,]3 | [E,B,E]2 [E,B,E] [E,B,E]2 [E,B,] [E,E]2 [E,E] [E,E]2 [E,E] | %2
[M:9/8] [E,E][E,E][E,B,] [E,B,]2 [E,E] [E,E]2 [E,E] |[M:3/8] [E,B,E]2 [E,G,] | %4
[M:3/4] [B,,B,]3 [B,,B,]3 | [C,G,]3 [B,,B,]3 |[M:9/8] [E,B,E]8- [E,B,E] |[M:3/8] [E,G,B,]3 | %8
[M:6/4] [E,B,E]2 [E,B,E] [E,B,E]2 [E,B,] [E,E]2 [E,E] [E,E]2 [E,E] | %9
[M:9/8] [E,E][E,E][E,B,] [E,B,]2 [E,E] [E,E]2 [E,E] |[M:3/8] [E,B,E]2 [E,G,] | %11
[M:3/4] [B,,B,]3 [B,,B,]3 | [B,,B,]3 [B,,A,]3 |[M:9/8] [E,G,]8- [E,G,] |[M:3/8] [E,E]2 [E,B,] | %15
[M:6/4] [E,B,]3 [E,C]3 [E,B,]3 [E,B,]2 [E,E] | %16
 [E,E]2 [F,D][K:treble] [G,EG]2 [G,B,E][K:bass] [A,E]2 [G,B,E] [E,B,E]2 [E,G,] | %17
[M:3/4] [B,,B,]3 [B,,B,]3 | [C,G,]3 [B,,B,]3 |[M:9/8] [E,B,]8- [E,B,] |[M:3/8] [E,E]2 [E,B,] | %21
[M:6/4] [E,B,]3 [E,C]3 [E,B,]3 [E,B,]2 [E,E] | %22
 [E,E]2 [F,D][K:treble] [G,EG]2 [G,B,E][K:bass] [A,E]2 [G,B,E] [E,B,E]2 [E,G,] | %23
[M:3/4] [B,,B,]3 [B,,B,]3 | [E,B,]3 [C,F,]3 |[M:9/8] F,3 _G,3 F,3 |[M:3/8] [E,G,]3 | %27
[M:6/4] [E,B,E]2 [E,B,E][E,B,E][E,A,E][E,B,E] [E,G,E]3 [E,E]-[E,A,E][E,G,E] | %28
 E2- [E,E-] [E,E-]2 [E,E] [E,B,E]3 [E,G,B,]2 [E,G,B,] | %29
 [B,,B,]2 [B,,B,] [B,,B,]2 B,, C,3 B,,2 B,, | E,2 E, E,2 E, E,3 E,2 E, | %31
 A,3 A,2 A, A,3[K:treble] [A,CA]2 [A,EA] | [E,E]3 [F,A,]2 F, [G,B,]3 [E,G,]2 [E,B,E] | %33
 [B,,G,]2 B,, B,,2 B,, B,,2 B,, B,,2 B,, |[M:9/8] [E,G,B,]8- [E,G,B,] |] %35
V:3
 x12 | x12 |[M:9/8] x9 |[M:3/8] x3 |[M:3/4] x6 | x6 |[M:9/8] x9 |[M:3/8] x3 |[M:6/4] x12 | %9
[M:9/8] x9 |[M:3/8] x3 |[M:3/4] x6 | x6 |[M:9/8] x9 |[M:3/8] x3 |[M:6/4] x12 | x12 |[M:3/4] x6 | %18
 x6 |[M:9/8] x9 |[M:3/8] x3 |[M:6/4] x12 | x12 |[M:3/4] x6 | x6 |[M:9/8] D3 E3 D3 |[M:3/8] x3 | %27
[M:6/4] x12 | z2 G, G,2 G, G3 E2 E | [DF]4 z B, [G,E]3 B,2 B, | B,2 B, B,2 B, B,3 [EGB]2 [EGB] | %31
 .E6 z6 | B4- B-[A,B-] [EB]3 E2 G | z2 G, G,2 [B,EG] G,2 G, A,2 A, |[M:9/8] x9 |] %35
V:4
 x12 | x12 |[M:9/8] x9 |[M:3/8] x3 |[M:3/4] x6 | x6 |[M:9/8] x9 |[M:3/8] x3 |[M:6/4] x12 | %9
[M:9/8] x9 |[M:3/8] x3 |[M:3/4] x6 | x6 |[M:9/8] x9 |[M:3/8] x3 |[M:6/4] x12 | %16
 x3[K:treble] x3[K:bass] x6 |[M:3/4] x6 | x6 |[M:9/8] x9 |[M:3/8] x3 |[M:6/4] x12 | %22
 x3[K:treble] x3[K:bass] x6 |[M:3/4] x6 | x6 |[M:9/8] B,,8- B,, |[M:3/8] x3 |[M:6/4] z6 z2 z .G,3 | %28
 .[E,G,]6 z6 | x12 | x12 | x9[K:treble] x3 | x12 | x12 |[M:9/8] x9 |] %35

